svgs/solid/bell-concierge.svg

<svg xmlns="http://www.w3.org/2000/svg" viewBox="0 0 512 512"><!-- Font Awesome Pro 6.0.0-alpha2 by @fontawesome - https://fontawesome.com License - https://fontawesome.com/license (Commercial License) --><path d="M280 145.324V112H296C309.255 112 320 101.255 320 88V88C320 74.745 309.255 64 296 64H216C202.745 64 192 74.745 192 88V88C192 101.255 202.745 112 216 112H232V145.324C119.582 157.307 32 252.4 32 368H480C480 252.4 392.418 157.307 280 145.324ZM488 400H24C10.745 400 0 410.745 0 424V424C0 437.255 10.745 448 24 448H488C501.255 448 512 437.255 512 424V424C512 410.745 501.255 400 488 400Z"/></svg>

<svg xmlns="http://www.w3.org/2000/svg" viewBox="0 0 512 512"><!--! Font Awesome Pro 6.4.0 by @fontawesome - https://fontawesome.com License - https://fontawesome.com/license (Commercial License) Copyright 2023 Fonticons, Inc. --><path d="M216 64c-13.3 0-24 10.7-24 24s10.7 24 24 24h16v33.3C119.6 157.2 32 252.4 32 368H480c0-115.6-87.6-210.8-200-222.7V112h16c13.3 0 24-10.7 24-24s-10.7-24-24-24H256 216zM24 400c-13.3 0-24 10.7-24 24s10.7 24 24 24H488c13.3 0 24-10.7 24-24s-10.7-24-24-24H24z"/></svg>
